src/icons/hicolor/scalable/apps/yast-installation.svg

<?xml version="1.0" encoding="UTF-8"?>
<svg version="1.1" viewBox="0 0 128 128" xmlns="http://www.w3.org/2000/svg">
<defs>
<linearGradient id="a" x1="2" x2="30" y1="17" y2="17" gradientUnits="userSpaceOnUse">
<stop stop-color="#c0bfbc" offset="0"/>
<stop stop-color="#c0bfbc" offset=".14286"/>
<stop stop-color="#deddda" offset=".25"/>
<stop stop-color="#c0bfbc" offset=".5"/>
<stop stop-color="#c0bfbc" offset="1"/>
</linearGradient>
</defs>
<g transform="matrix(2,0,0,2,0,32)">
<path d="m8-6-6 10 6 2z" fill="#cdab8f"/>
<path d="m56-6 6 10-6 2z" fill="#cdab8f"/>
<rect x="8" y="-6" width="48" height="44" ry="0" fill="#cdab8f"/>
<rect x="8" y="-6" width="48" height="40" ry="0" fill="#dec7b4"/>
<rect x="22" y="-6" width="34" height="40" fill="#73ba25"/>
<rect x="22" y="34" width="34" height="4" fill="#54881b"/>
<path d="m26 24v14h12v-14l-6 4z" fill="#63452c" opacity=".2"/>
<path d="m8-6-2 16h26v-16z" fill="#dec7b4"/>
<path d="m22 10h36l-2-16h-34z" fill="#73ba25"/>
<rect x="6" y="10" width="26" height="2" fill="#cdab8f"/>
<rect x="22" y="10" width="36" height="2" fill="#54881b"/>
</g>
<g transform="matrix(2,0,0,2,64,62)">
<path d="m16 3c-7.732 0-14 6.268-14 14s6.268 14 14 14 14-6.268 14-14-6.268-14-14-14zm0 9a5 5 0 0 1 5 5 5 5 0 0 1 -5 5 5 5 0 0 1 -5 -5 5 5 0 0 1 5 -5z" fill="url(#a)"/>
<path d="m16 2c-7.732 0-14 6.268-14 14s6.268 14 14 14 14-6.268 14-14-6.268-14-14-14zm0 9a5 5 0 0 1 5 5 5 5 0 0 1 -5 5 5 5 0 0 1 -5 -5 5 5 0 0 1 5 -5z" fill="#deddda"/>
<path d="m16 11a5 5 0 0 0 -5 5 5 5 0 0 0 5 5 5 5 0 0 0 5 -5 5 5 0 0 0 -5 -5zm0 3a2 2 0 0 1 2 2 2 2 0 0 1 -2 2 2 2 0 0 1 -2 -2 2 2 0 0 1 2 -2z" fill="#c0bfbc"/>
<path d="m16 2v9a5 5 0 0 1 3.5332 1.4668l6.3672-6.3672c-2.5335-2.5335-6.0344-4.0996-9.9004-4.0996zm-3.5332 17.533-6.3672 6.3672c2.5335 2.5335 6.0344 4.0996 9.9004 4.0996v-9a5 5 0 0 1 -3.5332 -1.4668z" fill="#f6f5f4" opacity=".5"/>
<path d="m16 10a6 6 0 0 0 -6 6 6 6 0 0 0 6 6 6 6 0 0 0 6 -6 6 6 0 0 0 -6 -6zm0 1a5 5 0 0 1 5 5 5 5 0 0 1 -5 5 5 5 0 0 1 -5 -5 5 5 0 0 1 5 -5z" fill="#9a9996"/>
<circle cx="22" cy="22" r="0" fill="#3d3846"/>
</g>
</svg>

<?xml version="1.0" encoding="UTF-8" standalone="no"?>
<svg
   xmlns:dc="http://purl.org/dc/elements/1.1/"
   xmlns:cc="http://creativecommons.org/ns#"
   xmlns:rdf="http://www.w3.org/1999/02/22-rdf-syntax-ns#"
   xmlns:svg="http://www.w3.org/2000/svg"
   xmlns="http://www.w3.org/2000/svg"
   height="128"
   width="128"
   id="svg34"
   viewBox="0 0 128 128"
   version="1.1">
  <defs
     id="defs38">
    <linearGradient
       id="a"
       x1="2"
       x2="30"
       y1="17"
       y2="17"
       gradientUnits="userSpaceOnUse">
      <stop
         stop-color="#c0bfbc"
         offset="0"
         id="stop845" />
      <stop
         stop-color="#c0bfbc"
         offset=".14286"
         id="stop847" />
      <stop
         stop-color="#deddda"
         offset=".25"
         id="stop849" />
      <stop
         stop-color="#c0bfbc"
         stop-opacity=".93852"
         offset=".5"
         id="stop851" />
      <stop
         stop-color="#c0bfbc"
         stop-opacity=".98361"
         offset="1"
         id="stop853" />
    </linearGradient>
  </defs>
  <metadata
     id="metadata2">
    <rdf:RDF>
      <cc:Work
         rdf:about="">
        <dc:format>image/svg+xml</dc:format>
        <dc:type
           rdf:resource="http://purl.org/dc/dcmitype/StillImage" />
        <dc:creator>
          <cc:Agent>
            <dc:title>Jakub Steiner</dc:title>
          </cc:Agent>
        </dc:creator>
        <dc:source>http://jimmac.musichall.cz</dc:source>
        <cc:license
           rdf:resource="http://creativecommons.org/licenses/by-sa/2.0/" />
        <dc:title></dc:title>
        <dc:subject>
          <rdf:Bag>
            <rdf:li>apparmor</rdf:li>
            <rdf:li>novell</rdf:li>
          </rdf:Bag>
        </dc:subject>
      </cc:Work>
      <cc:License
         rdf:about="http://creativecommons.org/licenses/by-sa/2.0/">
        <cc:permits
           rdf:resource="http://web.resource.org/cc/Reproduction" />
        <cc:permits
           rdf:resource="http://web.resource.org/cc/Distribution" />
        <cc:requires
           rdf:resource="http://web.resource.org/cc/Notice" />
        <cc:requires
           rdf:resource="http://web.resource.org/cc/Attribution" />
        <cc:permits
           rdf:resource="http://web.resource.org/cc/DerivativeWorks" />
        <cc:requires
           rdf:resource="http://web.resource.org/cc/ShareAlike" />
      </cc:License>
    </rdf:RDF>
  </metadata>
  <g
     id="g26"
     transform="matrix(2,0,0,2,0,32)">
    <path
       style="fill:#cdab8f"
       id="path4"
       d="M 8,-6 2,4 8,6 Z" />
    <path
       style="fill:#cdab8f"
       id="path6"
       d="M 56,-6 62,4 56,6 Z" />
    <rect
       style="fill:#cdab8f"
       id="rect8"
       ry="0"
       height="44"
       width="48"
       y="-6"
       x="8" />
    <rect
       style="fill:#dec7b4"
       id="rect10"
       ry="0"
       height="40"
       width="48"
       y="-6"
       x="8" />
    <rect
       style="fill:#73ba25"
       id="rect12"
       height="40"
       width="34"
       y="-6"
       x="22" />
    <rect
       style="fill:#54881b"
       id="rect14"
       height="4"
       width="34"
       y="34"
       x="22" />
    <path
       style="opacity:0.2;fill:#63452c"
       id="path16"
       d="M 26,24 V 38 H 38 V 24 l -6,4 z" />
    <path
       style="fill:#dec7b4"
       id="path18"
       d="M 8,-6 6,10 H 32 V -6 Z" />
    <path
       style="fill:#73ba25"
       id="path20"
       d="M 22,10 H 58 L 56,-6 H 22 Z" />
    <rect
       style="fill:#cdab8f"
       id="rect22"
       height="2"
       width="26"
       y="10"
       x="6" />
    <rect
       style="fill:#54881b"
       id="rect24"
       height="2"
       width="36"
       y="10"
       x="22" />
  </g>
  <g
     transform="matrix(2,0,0,2,64,62)"
     id="g933">
    <path
       style="fill:url(#a)"
       d="M 16,3 C 8.268,3 2,9.268 2,17 2,24.732 8.268,31 16,31 23.732,31 30,24.732 30,17 30,9.268 23.732,3 16,3 Z m 0,9 a 5,5 0 0 1 5,5 5,5 0 0 1 -5,5 5,5 0 0 1 -5,-5 5,5 0 0 1 5,-5 z"
       id="path860" />
    <path
       style="fill:#deddda"
       d="M 16,2 C 8.268,2 2,8.268 2,16 2,23.732 8.268,30 16,30 23.732,30 30,23.732 30,16 30,8.268 23.732,2 16,2 Z m 0,9 a 5,5 0 0 1 5,5 5,5 0 0 1 -5,5 5,5 0 0 1 -5,-5 5,5 0 0 1 5,-5 z"
       id="path862" />
    <path
       style="fill:#c0bfbc;fill-opacity:0.94672002"
       d="m 16,11 a 5,5 0 0 0 -5,5 5,5 0 0 0 5,5 5,5 0 0 0 5,-5 5,5 0 0 0 -5,-5 z m 0,3 a 2,2 0 0 1 2,2 2,2 0 0 1 -2,2 2,2 0 0 1 -2,-2 2,2 0 0 1 2,-2 z"
       id="path864" />
    <path
       style="opacity:0.5;fill:#f6f5f4"
       d="m 16,2 v 9 a 5,5 0 0 1 3.5332,1.4668 L 25.9004,6.0996 C 23.3669,3.5661 19.866,2 16,2 Z M 12.4668,19.533 6.0996,25.9002 C 8.6331,28.4337 12.134,29.9998 16,29.9998 v -9 A 5,5 0 0 1 12.4668,19.533 Z"
       id="path866" />
    <path
       style="fill:#9a9996;fill-opacity:0.94672002"
       d="m 16,10 a 6,6 0 0 0 -6,6 6,6 0 0 0 6,6 6,6 0 0 0 6,-6 6,6 0 0 0 -6,-6 z m 0,1 a 5,5 0 0 1 5,5 5,5 0 0 1 -5,5 5,5 0 0 1 -5,-5 5,5 0 0 1 5,-5 z"
       id="path868" />
    <circle
       style="fill:#3d3846;fill-opacity:0.99179999"
       cx="22"
       cy="22"
       r="0"
       id="circle872" />
  </g>
</svg>
